!!!OTL: 297. Bundeslied.
!!!COM: W. A. Mozart
!!!ODT: 1791
!!!ARE: Europa, Mitteleuropa, Deutschland
!!!SCT: B0297
!!!TXL: @@DE
!!!YEM: Copyright 1995, estate of Helmut Schaffrath.
**kern	**text
*ICvox	*
*Ivox	*
*clefG2	*
*M3/4	*
*k[b-]	*
*F:	*
=1	=1
!LO:TX:a:t=Soli.	!
!LO:TX:a:t=Feiertich langſam.	!
{2cc	Brü-
4b-	-der,
=2	=2
2a	reicht
8b-L	die
8ccJ	.
=3	=3
2dd	Hand
4cc	ʒum
=4	=4
8ccL	Bun-
8b-J	.
4b-	-de!
4r}	.
=5	=5
{2b-/	Die-
4a	-ſe
=6	=6
2g	ſchö-
8aL	-ne
8b-J	.
=7	=7
2cc	Freundſchafts-
4b-	.
=8	=8
8b-L	-ſtun-
8aJ	.
4a	-de
4r}	.
=9	=9
{2bn	führ'
4cc	uns
=10	=10
2dd	hin
4ee	ʒu
=11	=11
(4ff	lich-
4dd)	.
4bn	-ten
=12	=12
2cc	Höhn!
4r}	.
=13	=13
!LO:TX:a:t=Soli. Vom Chor wiederholt.	!
{2g	Laßt,
4a	was
=14	=14
(4cc	ir-
4b-X)	.
4g	-diſch
=15	=15
2a	iſt,
8ddL	ent-
8b-J	.
=16	=16
4a	-flie-
4g	-hen,
4r}	.
=17	=17
{2g	unſ-
4a	-rer
=18	=18
(4cc	Freundſchaft
4b-)	.
4g	.
=19	=19
2a	Har-
8ddL	-mo-
8b-J	.
=20	=20
4a	-ni-
4g	-en
4r}	.
=21	=21
{2b-	dau-
4a	-ern
=22	=22
2dd	e-
4cc	-wig
=23	=23
(8ccL	feſt
8b-J	.
4a)	.
4g	und
=24	=24
2a	ſchön.
4r}	.
=25	=25
{2dd	dau-
4cc	-ern
=26	=26
2ee	e-
4ff	-wig
=27	=27
8ccL	feſt
8b-J	.
4a	.
4g	und
=28	=28
2f	ſchön.
4r}	.
=29	=29
{2g	Laßt,
4a	was
=30	=30
(4cc	ir-
4b-X)	.
4g	-diſch
=31	=31
2a	iſt,
8ddL	ent-
8b-J	.
=32	=32
4a	-flie-
4g	-hen,
4r}	.
=33	=33
{2g	unſ-
4a	-rer
=34	=34
(4cc	Freundſchaft
4b-)	.
4g	.
=35	=35
2a	Har-
8ddL	-mo-
8b-J	.
=36	=36
4a	-ni-
4g	-en
4r}	.
=37	=37
{2b-	dau-
4a	-ern
=38	=38
2dd	e-
4cc	-wig
=39	=39
(8ccL	feſt
8b-J	.
4a)	.
4g	und
=40	=40
2a	ſchön.
4r}	.
=41	=41
{2dd	dau-
4cc	-ern
=42	=42
2ee	e-
4ff	-wig
=43	=43
8ccL	feſt
8b-J	.
4a	.
4g	und
=44	=44
2f	ſchön.
4r}	.
==	==
!!!AGN: Stimmungs - Lied, Freude, Freundschaft, Freimaurer - Gesang
!!!GTL: Lieder der Freude und Geseligkeit
!!!ONB: ESAC (Essen Associative Code) Database: BOEHME
!!!AMT: simple triple
!!!AIN: vox
!!!EED: Helmut Schaffrath
!!!EEV: 1.0
!!@@COMMENT:"Freimautergeſang. Chor für Männerſtimmen in der kleinen Freimaurercantate, komponirt
!!von Moʒart am 15. Nov. 1791, drei Wochen vor ſeinem Tode. Der urſprüngliche Text beginnt:
!!"Laßt uns mit verſchlungnen Händen". Der untergelegte, oben ſtehende Text iſt erſt um
!!1824 entſtanden und ſteht (nach Erks Angabe) ʒuerſt bei Hientʒſch, Männergeſänge III. Heft S. 46.
!!Jetʒt iſt das Bundeslied in allen Sammlungen für Männerchöre und Schulen abgedruckt und wird
!!bei ernſten Feſtverſammlungen von Vereinen geſungen."
!!@@END:
!!!URL-scan: https://archive.org/details/BoehmeVtLieder1895/page/n249/mode/2up
!!!ENC: Anna Maria Matuszewska
!!!EEV: 2024/04/07
*-	*-
